X:651
T:
S:Efter »Florsen» i Burs.
R:kadrilj
O:Gotland, Burs
M:C
L:1/16
K:C
C2EG c2eg gfef d4|e2eg c2ce dcBA G4|C2EG c2eg gfef d3e|fefa agBd d4 c4:|
|:cGEC C2EG cGEC C2EG|cBcd c2G2 cBcd c2GE|C2EG c2eg gfef d3e|fefa agBd d4 c4:|
|:g2gc' e2eg gfef d3f|e2eg c2ce dcBA G2ef|g2gc' e2eg gfef d3e|fefa agBd d4 c4:|
d^cde f2f2 e^def g2g2|agbg c'2g2 fedc B2G2|g2gc' e2eg gfef d3e|fefa agBd d4 c4:|

